resources/svg/rhythm-fill.svg

<svg xmlns="http://www.w3.org/2000/svg" viewBox="0 0 24 24" fill="currentColor">
    <g>
        <path fill="none" d="M0 0h24v24H0z"/>
        <path d="M2 9h2v12H2V9zm6-6h2v18H8V3zm6 9h2v9h-2v-9zm6-6h2v15h-2V6z"/>
    </g>
</svg>

<svg fill="currentColor" viewBox="0 0 24 24" xmlns="http://www.w3.org/2000/svg"><path d="M2 9H4V21H2V9ZM8 3H10V21H8V3ZM14 12H16V21H14V12ZM20 6H22V21H20V6Z"/></svg>
